assets/svg/scooter.svg

<svg fill="none" height="180" viewBox="0 0 200 180" width="200" xmlns="http://www.w3.org/2000/svg"><path clip-rule="evenodd" d="m199.383 145.711c-2.595-10.601-9.603-19.586-19.254-24.684 1.071-15.449.764-56.5461-27.764-87.559h.57c7.342-.0078 13.291-5.9572 13.299-13.2986v-6.6499c-.008-7.34141-5.957-13.290761-13.299-13.298553h-29.922c-7.895.010909-14.697 5.564803-16.287 13.298553h-10.3099c-1.8362 0-3.3245 1.4883-3.3245 3.3246 0 1.8362 1.4883 3.3245 3.3245 3.3245h10.3099c1.59 7.7338 8.392 13.2881 16.287 13.2986h1.268c3.019 11.0182 14.356 59.0937-9.369 85.1608-4.437 5.015-10.803 7.9-17.4997 7.93h-10.9706v-23.272c.0019-5.3286-2.1343-10.4348-5.9307-14.1735 3.5996-1.5966 5.9233-5.1616 5.9307-9.0993v-6.6495c-.0059-5.506-4.4681-9.9682-9.974-9.9741h-66.49367c-5.50598.0059-9.96818451 4.4681-9.97403 9.9741v6.6495c.00740393 3.9377 2.33104 7.5027 5.93065 9.0993-3.79597 3.7387-5.93259672 8.8449-5.93065 14.1735v43.22c0 .051.0133757.097.026751.143h.0000159c.0113116.039.0226192.078.0258318.119.021039.221.0650653.439.1312983.65.052208.203.124286.399.215065.587.098961.183.215455.356.347922.516.125845.171.268446.328.425456.47.15896.131.33.246.51039.344.1913.117.39467.213.60623.287.03907.013.07376.033.10844.053.04141.024.08279.048.13156.06.2587.063.52442.094.79052.095l.00468.001h9.48464c-2.0345 9.916 2.1265 20.077 10.5316 25.718 8.4051 5.64 19.3858 5.64 27.7905 0 8.4051-5.641 12.5661-15.802 10.5316-25.718h76.1545c-2.031 9.914 2.131 20.072 10.535 25.71 8.403 5.638 19.38 5.638 27.784 0 8.403-5.638 12.566-15.796 10.535-25.71h9.484l.005-.001c.267-.001.532-.033.791-.095.048-.012.09-.036.131-.06.012-.007.023-.014.035-.02.023-.013.047-.025.073-.033.212-.074.415-.17.607-.287.537-.323.98-.781 1.283-1.329.178-.393.295-.81.347-1.238.001-.014.003-.029.006-.043.003-.011.005-.022.008-.033.004-.014.008-.027.011-.041l.001-.001v-.001c.013-.046.027-.092.027-.143-.074-.258-.106-.526-.097-.795zm-46.448-138.84096c3.67.00428 6.645 2.97857 6.649 6.64946v6.6495c-.004 3.6705-2.979 6.6452-6.649 6.6495zm-127.6723 162.08096c5.4542 4.725 13.1759 5.801 19.7135 2.747 6.5377-3.053 10.6687-9.665 10.5464-16.88-.0277-1.69-.2914-3.369-.7831-4.987h-7.0333c.759 1.554 1.158 3.258 1.1673 4.987 0 6.427-5.2099 11.637-11.6365 11.637s-11.6365-5.21-11.6365-11.637c.0094-1.729.4083-3.433 1.1673-4.987h-7.0352c-2.0899 6.907.0764 14.396 5.5301 19.12zm6.9873-14.133c0-2.754 2.2329-4.987 4.987-4.987 2.753.003 4.9839 2.234 4.987 4.987 0 2.754-2.2328 4.987-4.987 4.987-2.7541 0-4.987-2.233-4.987-4.987zm-24.35454-11.636h9.38294 49.2994c-4.7618-12.039-16.3944-19.948-29.3412-19.948-12.9467 0-24.5797 7.909-29.34114 19.948zm71.89634 0h-6.1527c-4.3488-13.629-15.9456-23.687-30.0526-26.066-14.1066-2.378-28.3605 3.322-36.93741 14.772v-28.602c.00779-7.3417 5.95711-13.291 13.29861-13.2988h46.5455c7.3415.0078 13.2908 5.9571 13.2986 13.2988zm-3.3241-59.8443c1.8354-.0016 3.3226-1.4891 3.3245-3.3245v-6.6495c-.0015-1.8355-1.4891-3.3226-3.3245-3.3246h-66.49367c-1.83546.0016-3.3226 1.4891-3.32455 3.3246v6.6495c.00156 1.8354 1.48909 3.3226 3.32455 3.3245zm88.9583-16.6235c6.328 16.4416 9.123 34.0308 8.203 51.6248-6.709-2.113-13.873-2.322-20.694-.602v-41.0488c.006-5.5059 4.468-9.9682 9.974-9.974zm-51.774-46.5456c1.399 3.9736 5.148 6.6366 9.361 6.6495h23.272v-19.94806h-23.272c-4.213.01285-7.962 2.67584-9.361 6.64946h12.685c1.837 0 3.325 1.4883 3.325 3.3246 0 1.8362-1.488 3.3245-3.325 3.3245zm-27.2103 123.0134v-9.974h10.9706c8.5707-.019 16.7257-3.695 22.4157-10.104 25.139-27.6206 15.212-75.0627 11.358-89.6364h11.832c8.052 7.6266 14.651 16.6531 19.476 26.6392-9.002.2229-16.19 7.5756-16.208 16.5814v43.3848c-9.764 4.482-17.186 12.871-20.445 23.109zm63.8253 25.775c5.455 4.726 13.179 5.802 19.718 2.747 6.539-3.054 10.67-9.67 10.544-16.886-.027-1.69-.29-3.369-.781-4.987h-7.036c.759 1.554 1.158 3.258 1.168 4.987 0 6.427-5.21 11.637-11.637 11.637s-11.636-5.21-11.636-11.637c.009-1.729.408-3.433 1.167-4.987h-7.033c-2.093 6.907.071 14.4 5.526 19.126zm6.99-14.139c0-2.754 2.232-4.987 4.987-4.987 2.753.003 4.983 2.234 4.987 4.987 0 2.754-2.233 4.987-4.987 4.987-2.755 0-4.987-2.233-4.987-4.987zm-6.421-29.437c-8.198 3.173-14.699 9.626-17.933 17.801h58.682c-6.351-16.091-24.485-24.057-40.631-17.848-.026.011-.051.021-.077.031-.014.005-.027.011-.041.016z" fill="#fff" fill-rule="evenodd"/></svg>

<svg width="200" height="180" viewBox="0 0 200 180" fill="none" xmlns="http://www.w3.org/2000/svg">
<path fill-rule="evenodd" clip-rule="evenodd" d="M199.383 145.711C196.788 135.11 189.78 126.125 180.129 121.027C181.2 105.578 180.893 64.4809 152.365 33.468H152.935C160.277 33.4602 166.226 27.5108 166.234 20.1694V13.5195C166.226 6.17809 160.277 0.228739 152.935 0.220947H123.013C115.118 0.231856 108.316 5.78575 106.726 13.5195H96.4161C94.5799 13.5195 93.0916 15.0078 93.0916 16.8441C93.0916 18.6803 94.5799 20.1686 96.4161 20.1686H106.726C108.316 27.9024 115.118 33.4567 123.013 33.4672H124.281C127.3 44.4854 138.637 92.5609 114.912 118.628C110.475 123.643 104.109 126.528 97.4123 126.558H86.4417V103.286C86.4436 97.9574 84.3074 92.8512 80.511 89.1125C84.1106 87.5159 86.4343 83.9509 86.4417 80.0132V73.3637C86.4358 67.8577 81.9736 63.3955 76.4677 63.3896H9.97403C4.46805 63.3955 0.00584549 67.8577 0 73.3637V80.0132C0.00740393 83.9509 2.33104 87.5159 5.93065 89.1125C2.13468 92.8512 -0.00194672 97.9574 0 103.286V146.506C0 146.557 0.0133757 146.603 0.026751 146.649L0.0267669 146.649C0.0380785 146.688 0.0493861 146.727 0.0525987 146.768C0.0736377 146.989 0.117664 147.207 0.183897 147.418C0.236105 147.621 0.308183 147.817 0.398962 148.005C0.497923 148.188 0.614417 148.361 0.746884 148.521C0.872729 148.692 1.01533 148.849 1.17234 148.991C1.3313 149.122 1.50234 149.237 1.68273 149.335C1.87403 149.452 2.0774 149.548 2.28896 149.622C2.32803 149.635 2.36272 149.655 2.3974 149.675C2.43881 149.699 2.48019 149.723 2.52896 149.735C2.78766 149.798 3.05338 149.829 3.31948 149.83L3.32416 149.831H12.8088C10.7743 159.747 14.9353 169.908 23.3404 175.549C31.7455 181.189 42.7262 181.189 51.1309 175.549C59.536 169.908 63.697 159.747 61.6625 149.831H137.817C135.786 159.745 139.948 169.903 148.352 175.541C156.755 181.179 167.732 181.179 176.136 175.541C184.539 169.903 188.702 159.745 186.671 149.831H196.155L196.16 149.83C196.427 149.829 196.692 149.797 196.951 149.735C196.999 149.723 197.041 149.699 197.082 149.675C197.094 149.668 197.105 149.661 197.117 149.655C197.14 149.642 197.164 149.63 197.19 149.622C197.402 149.548 197.605 149.452 197.797 149.335C198.334 149.012 198.777 148.554 199.08 148.006C199.258 147.613 199.375 147.196 199.427 146.768C199.428 146.754 199.43 146.739 199.433 146.725C199.436 146.714 199.438 146.703 199.441 146.692C199.445 146.678 199.449 146.665 199.452 146.651L199.453 146.65L199.453 146.649C199.466 146.603 199.48 146.557 199.48 146.506C199.406 146.248 199.374 145.98 199.383 145.711ZM152.935 6.87004C156.605 6.87432 159.58 9.84861 159.584 13.5195V20.169C159.58 23.8395 156.605 26.8142 152.935 26.8185V6.87004ZM25.2627 168.951C30.7169 173.676 38.4386 174.752 44.9762 171.698C51.5139 168.645 55.6449 162.033 55.5226 154.818C55.4949 153.128 55.2312 151.449 54.7395 149.831H47.7062C48.4652 151.385 48.8642 153.089 48.8735 154.818C48.8735 161.245 43.6636 166.455 37.237 166.455C30.8104 166.455 25.6005 161.245 25.6005 154.818C25.6099 153.089 26.0088 151.385 26.7678 149.831H19.7326C17.6427 156.738 19.809 164.227 25.2627 168.951ZM32.25 154.818C32.25 152.064 34.4829 149.831 37.237 149.831C39.99 149.834 42.2209 152.065 42.224 154.818C42.224 157.572 39.9912 159.805 37.237 159.805C34.4829 159.805 32.25 157.572 32.25 154.818ZM7.89546 143.182H17.2784H66.5778C61.816 131.143 50.1834 123.234 37.2366 123.234C24.2899 123.234 12.6569 131.143 7.89546 143.182ZM79.7918 143.182H73.6391C69.2903 129.553 57.6935 119.495 43.5865 117.116C29.4799 114.738 15.226 120.438 6.64909 131.888V103.286C6.65688 95.9443 12.6062 89.995 19.9477 89.9872H66.4932C73.8347 89.995 79.784 95.9443 79.7918 103.286V143.182ZM76.4677 83.3377C78.3031 83.3361 79.7903 81.8486 79.7922 80.0132V73.3637C79.7907 71.5282 78.3031 70.0411 76.4677 70.0391H9.97403C8.13857 70.0407 6.65143 71.5282 6.64948 73.3637V80.0132C6.65104 81.8486 8.13857 83.3358 9.97403 83.3377H76.4677ZM165.426 66.7142C171.754 83.1558 174.549 100.745 173.629 118.339C166.92 116.226 159.756 116.017 152.935 117.737V76.6882C152.941 71.1823 157.403 66.72 162.909 66.7142H165.426ZM113.652 20.1686C115.051 24.1422 118.8 26.8052 123.013 26.8181H146.285V6.87004H123.013C118.8 6.88289 115.051 9.54588 113.652 13.5195H126.337C128.174 13.5195 129.662 15.0078 129.662 16.8441C129.662 18.6803 128.174 20.1686 126.337 20.1686H113.652ZM86.4417 143.182V133.208H97.4123C105.983 133.189 114.138 129.513 119.828 123.104C144.967 95.4834 135.04 48.0413 131.186 33.4676H143.018C151.07 41.0942 157.669 50.1207 162.494 60.1068C153.492 60.3297 146.304 67.6824 146.286 76.6882V120.073C136.522 124.555 129.1 132.944 125.841 143.182H86.4417ZM150.267 168.957C155.722 173.683 163.446 174.759 169.985 171.704C176.524 168.65 180.655 162.034 180.529 154.818C180.502 153.128 180.239 151.449 179.748 149.831H172.712C173.471 151.385 173.87 153.089 173.88 154.818C173.88 161.245 168.67 166.455 162.243 166.455C155.816 166.455 150.607 161.245 150.607 154.818C150.616 153.089 151.015 151.385 151.774 149.831H144.741C142.648 156.738 144.812 164.231 150.267 168.957ZM157.257 154.818C157.257 152.064 159.489 149.831 162.244 149.831C164.997 149.834 167.227 152.065 167.231 154.818C167.231 157.572 164.998 159.805 162.244 159.805C159.489 159.805 157.257 157.572 157.257 154.818ZM150.836 125.381C142.638 128.554 136.137 135.007 132.903 143.182H191.585C185.234 127.091 167.1 119.125 150.954 125.334C150.928 125.345 150.903 125.355 150.877 125.365C150.863 125.37 150.85 125.376 150.836 125.381Z" fill="white"/>
</svg>
